<?xml version="1.0" encoding="UTF-8"?>
<map version="1.10" tiledversion="1.11.2" orientation="orthogonal" renderorder="right-down" width="30" height="20" tilewidth="16" tileheight="16" infinite="0" nextlayerid="9" nextobjectid="63">
 <tileset firstgid="1" source="WallA.tsx"/>
 <tileset firstgid="1021" source="FloorA.tsx"/>
 <tileset firstgid="1840" source="Decor0A.tsx"/>
 <tileset firstgid="2016" source="DoorAnimated.tsx"/>
 <tileset firstgid="2112" source="DecorAnimated.tsx"/>
 <tileset firstgid="2464" source="Chest0A.tsx"/>
 <tileset firstgid="2488" source="Chest1A.tsx"/>
 <tileset firstgid="2512" source="HumanoidAnimated.tsx"/>
 <layer id="1" name="bakground hitam" width="30" height="20">
  <data encoding="csv">
10,10,10,10,10,10,10,10,10,10,10,10,10,10,10,10,10,10,10,10,10,10,10,10,10,10,10,10,10,10,
10,10,10,10,181,182,182,182,205,182,205,182,182,182,205,182,205,182,182,182,205,182,205,182,182,182,182,183,10,10,
10,10,10,10,201,1210,1211,1211,201,1211,201,1211,1211,1211,201,1211,201,1211,1211,1211,201,1211,201,1211,1211,1211,1212,201,10,10,
10,10,10,10,201,1231,1232,1232,221,1232,223,1232,1232,1232,221,1232,223,1232,1232,1232,221,1232,223,1232,1232,1232,1233,201,10,10,
10,10,10,10,201,1231,1232,1232,1232,1232,1232,1232,1232,1232,1232,1232,1232,1232,1232,1232,1232,1232,1232,1232,1232,1232,1233,201,10,10,
10,10,10,10,201,1231,1232,1232,1232,1232,1232,1232,1232,1232,1232,1232,1232,1232,1232,1232,1232,1232,1232,1232,1232,1232,1233,201,10,10,
10,10,10,10,201,1231,1232,1232,1232,1232,1232,1232,1232,1232,1232,1232,1232,1232,1232,1232,1232,1232,1232,1232,1232,1232,1233,201,10,10,
10,10,10,10,201,1231,1232,1232,1232,1232,1232,1232,1232,1232,1232,1232,1232,1232,1232,1232,1232,1232,1232,1232,1232,1232,1233,201,10,10,
182,182,182,182,223,1231,1232,1232,1232,1232,1232,1232,1232,1232,1232,1232,1232,1232,1232,1232,1232,1232,1232,1232,1232,1232,1233,201,10,10,
1210,1211,1211,1211,1211,1232,1232,1232,1232,1232,1232,1232,1232,1232,1232,1232,1232,1232,1232,1232,1232,1232,1232,1232,1232,1232,1233,201,10,10,
1252,1253,1253,1253,1253,1232,1232,1232,1232,1232,1232,1232,1232,1232,1232,1232,1232,1232,1232,1232,1232,1232,1232,1232,1253,1253,1254,201,10,10,
182,182,182,182,183,1231,1232,1232,1232,1232,1232,1232,1232,1232,1232,1232,1232,1232,1232,1232,1232,1232,1232,181,182,182,182,2684354765,10,10,
10,10,10,10,201,1231,1232,1232,1232,1232,1232,1232,1232,1232,1232,1232,1232,1232,1232,1232,1232,1232,1232,1211,1211,1211,1212,201,10,10,
10,10,10,10,201,1231,1232,1232,1232,1232,1232,1232,1232,1232,1232,1232,1232,1232,1232,1232,1253,1253,1253,1253,1253,1253,1254,201,10,10,
10,10,10,10,201,1231,1232,1232,1232,1232,1232,1232,1232,1232,1232,1232,1232,1232,1232,1233,181,182,182,182,182,182,182,223,10,10,
10,10,10,10,201,1231,1232,1232,1232,1232,1232,1232,1232,1232,1232,1232,1232,1232,1232,1233,201,10,10,10,10,10,10,10,10,10,
10,10,10,10,201,1252,1253,1253,1253,1253,1253,1253,1253,1253,1253,1253,1253,1253,1253,1254,201,10,10,10,10,10,10,10,10,10,
10,10,10,10,221,182,182,182,182,182,182,182,182,182,182,182,182,182,182,182,223,10,10,10,10,10,10,10,10,10,
10,10,10,10,10,10,10,10,10,10,10,10,10,10,10,10,10,10,10,10,10,10,10,10,10,10,10,10,10,10,
10,10,10,10,10,10,10,10,10,10,10,10,10,10,10,10,10,10,10,10,10,10,10,10,10,10,10,10,10,10
</data>
 </layer>
 <layer id="2" name="Tile Layer 1" width="30" height="20">
  <data encoding="csv">
2054,2054,2054,2054,2054,2054,2054,2054,2054,2054,2054,2054,2054,2054,2054,2054,2054,2054,2054,2054,2054,2054,2054,2054,2054,2054,2054,2054,2054,2054,
2054,2054,2054,2054,2054,2054,2026,2054,2054,2054,2054,2054,2054,2054,2054,2054,2054,2054,2054,2054,2054,2054,2054,2054,2054,2054,2054,2054,2054,2054,
2054,2054,2054,2054,2054,2054,2054,2289,2054,2286,2054,2291,2054,2288,2054,2286,2054,2290,2054,2288,2054,2286,2054,2290,2435,2054,2054,2054,2054,2054,
2054,2054,2054,2054,2054,2054,2054,2054,2054,2384,2054,2242,2054,2054,2054,2404,2054,2242,2054,2054,2054,2388,2054,2246,2054,2054,2054,2054,2054,2054,
2054,2054,2054,2054,2054,2054,2054,2054,2054,2054,2054,2054,2054,2054,2054,2054,2054,2054,2054,2054,2054,2054,2054,2054,2054,2054,2054,2054,2054,2054,
2054,2054,2054,2054,2054,2054,2054,2054,2054,2054,2054,2054,2054,2054,2054,2054,2054,2054,2054,2054,2054,2054,2054,2054,2054,2054,2054,2054,2054,2054,
2054,2054,2054,2054,2054,2054,2054,2054,2054,2054,2054,2054,2054,2054,2054,2054,2054,2054,2054,2054,2054,2054,2054,2054,2054,2054,2054,2054,2054,2054,
2054,2054,2054,2054,2054,2054,2054,2054,2054,2054,2054,2054,2054,2054,2054,2054,2054,2054,2054,2054,2054,2054,2054,2054,2054,2054,2054,2054,2054,2054,
2054,2241,2054,2054,2054,2054,2054,2054,2054,2054,2054,2054,2054,2054,2054,2054,2054,2054,2054,2054,2054,2054,2054,2054,2054,2054,2054,2054,2054,2054,
2054,2054,2054,2054,2054,2054,2054,2054,2054,2054,2054,2054,2054,2054,2054,2054,2054,2054,2054,2054,2054,2054,2054,2054,2054,2054,2054,2054,0,0,
2054,2054,2054,2054,2054,2054,2054,2054,2054,2054,2054,2054,2054,2054,2054,2054,2054,2054,2054,2054,2054,2054,2054,2054,2054,2332,2333,2054,2054,2054,
2054,2054,2054,2054,2054,2054,2054,2054,2054,2054,2054,2054,2054,2054,2054,2054,2054,2054,2054,2054,2054,2054,2054,2054,2054,2054,2054,2054,2054,2054,
2054,2054,2054,2054,2054,2054,2054,2054,2054,2054,2054,2054,2054,2054,2054,2054,2054,2054,2054,2054,2054,2054,2054,2033,2684356846,2684356846,2684356846,2054,2054,2054,
2054,2054,2054,2054,2054,2054,2054,2054,2054,2054,2054,2054,2054,2054,2054,2054,2054,2054,2054,2054,2054,2054,2054,2033,2684356846,2684356846,2684356846,2054,2054,2054,
2054,2054,2054,2054,2054,2497,2475,2475,2497,2475,2497,2497,2054,2054,2054,2054,2054,2054,2054,2054,2054,2026,2054,2054,2054,2054,2054,2054,2054,2054,
2054,2054,2054,2054,2054,2475,2473,2497,2473,2473,2497,2475,2054,2054,2054,2054,2054,2054,2054,2054,2054,2054,2054,2054,2054,2054,2054,2054,2054,0,
2054,2054,2054,2054,2054,2473,2473,2473,2475,2473,2497,2475,2054,2054,2054,2054,2054,2054,2054,2054,2054,2054,2054,2054,2054,2054,2054,2054,2054,2054,
0,2054,2054,2054,2054,2054,2054,2054,2054,2054,2054,2054,2054,2054,2054,2054,2054,2054,2054,2054,2054,2054,2054,2054,2054,2054,2054,2054,2054,2054,
0,2054,0,2054,2054,2054,2054,2054,2054,2054,2054,2054,2054,2054,2054,2054,2054,2054,2054,2054,2054,2054,2054,2054,2054,2054,2054,2054,0,0,
0,2054,2054,2054,2054,0,0,0,0,2054,2054,2054,2054,2054,2054,2054,2054,2054,2054,2054,2054,2054,2054,0,2054,2054,2054,2054,2054,2054
</data>
 </layer>
 <layer id="3" name="decor" width="30" height="20">
  <data encoding="csv">
2311,2311,2311,2311,2311,2311,2311,2311,0,0,0,0,0,0,0,0,0,0,0,0,0,0,0,0,0,0,2311,2311,0,0,
0,2311,2311,2311,2311,2311,2311,2311,2311,2311,2311,2311,2311,2311,2311,2311,2311,2311,2311,2311,2311,2311,2311,2311,2311,2311,2311,2311,2311,2311,
0,0,0,2054,2311,2311,2311,2311,2311,2419,2311,2311,2311,2311,2311,2419,2311,2420,2311,2311,2311,2433,2311,2311,2311,2311,2311,2311,2311,2311,
0,0,0,0,2054,2054,2054,2311,2417,2056,2418,2311,2311,2311,2417,2056,2418,2311,2311,2311,2417,2056,2418,2311,2311,2311,2054,2054,0,0,
2054,2054,2054,2054,2054,2054,2054,2054,2054,2054,2311,2311,2311,2311,2311,2311,2311,2311,2311,2311,2311,2311,2311,2311,2311,2311,2311,2311,2311,2311,
2054,2054,2054,2054,2054,2054,2054,2054,2054,2054,2054,2054,2054,2054,2054,2054,2054,2054,2054,2054,2054,2054,2054,2054,2054,2054,2054,2054,0,0,
2054,2054,2054,2054,2054,2054,2054,2054,2054,2054,2054,2054,2054,2054,2054,2054,2054,2054,2054,2054,2054,2054,2054,2054,2054,2054,2054,2054,2054,2054,
2054,2054,2054,2054,2054,2054,2054,2054,2054,2054,2054,2054,2054,2054,2054,2054,2054,2054,2054,2054,2054,2054,2054,2054,2054,2054,2054,2054,2054,2054,
2054,2054,2054,2054,2054,2054,2054,2054,2054,2054,2054,2054,2054,2054,2054,2054,2054,2054,2054,2054,2054,2054,2054,2054,2054,2054,2054,2054,2054,2054,
2054,2054,2054,2054,2054,2054,2054,2054,2054,2054,2054,2054,2054,2054,2054,2054,2054,2054,2054,2054,2054,2054,2054,2054,2054,2054,2054,2054,2054,2054,
2054,2054,2054,2054,2054,2054,2054,2054,2054,2054,2054,2054,2054,2054,2054,2054,2054,2054,2054,2054,2054,2054,2054,2054,2054,2054,2420,2054,2054,2054,
2054,2054,2054,2054,2054,2054,2054,2054,2054,2054,2054,2054,2054,2054,2054,2054,2054,2054,2054,2054,2054,2054,2054,2054,2054,2054,2054,2054,2054,2054,
2054,2054,2054,2054,2054,2054,2054,2054,2054,2054,2054,2054,2054,2054,2054,2054,2054,2054,2054,2054,2054,2054,2054,2054,2684356612,2684356658,2684356612,2054,2054,2054,
2054,2054,2054,2054,2054,2054,2054,2054,2054,2054,2054,2054,2054,2054,2054,2054,2054,2054,2054,2054,2054,2054,2054,2054,2684356658,2684356612,2684356612,2054,2054,2054,
2054,2054,2054,2054,2054,2416,2417,2416,2418,2418,2420,2418,2054,2054,2054,2054,2054,2054,2054,2054,2054,2054,2054,2054,2054,2054,2054,2054,2054,2054,
2054,2054,2054,2054,2054,2418,2054,2418,2054,2419,2054,2416,2054,2054,2054,2054,2054,2054,2054,2054,2054,2054,2054,2054,2054,2054,2054,2054,2054,2054,
0,2054,2054,2054,2054,2417,2054,2054,2416,2054,2054,2420,2054,2054,2054,2054,2054,2054,2054,2054,2054,2054,2054,2054,2054,2054,2054,2054,2054,2054,
0,0,0,0,2054,2054,2054,2054,2054,2054,2054,2054,2054,2054,2054,2054,2054,2054,2054,2054,2054,2054,2054,2054,2054,2054,2054,2054,2054,0,
0,0,0,0,2054,2054,2054,2054,2054,2054,2054,2054,2054,2054,2054,2054,2054,2054,2054,2054,2054,2054,2054,2054,2054,2054,2054,2054,2054,2054,
0,0,0,0,0,0,0,0,0,0,0,2054,2054,2054,2054,2054,2054,2054,2054,2054,0,0,0,0,0,0,0,0,0,0
</data>
 </layer>
 <layer id="5" name="decor 2" width="30" height="20">
  <data encoding="csv">
0,0,0,0,2054,2054,2054,2054,2054,0,0,0,0,0,0,0,0,0,0,0,0,0,0,0,0,0,0,0,0,0,
0,0,0,2054,2311,2311,2311,2311,2311,2311,2311,2311,2311,2311,2311,2311,2311,2311,2311,2311,2311,2054,2054,2054,2054,2054,2054,2054,0,0,
0,0,0,2311,2311,2311,2311,2311,2311,2311,2311,2311,2311,2311,2311,2311,2311,2311,2311,2311,2311,2311,2311,2311,2311,2311,2311,2054,0,0,
0,0,0,0,2054,2054,2054,2311,2311,2100,2311,2311,2311,2311,2311,2098,2311,2311,2311,2311,2311,2311,2311,2311,2311,2311,2311,2311,2311,2054,
2311,2311,2311,2311,2311,2311,2311,2311,2311,2311,2311,2311,2311,2311,2311,2311,2311,2311,2311,2311,2311,2311,2311,2054,2054,2311,2311,2311,2054,2054,
2054,2054,2054,2054,2054,2054,2054,2054,2054,2054,2054,2054,2054,2054,2054,2054,2054,2054,2054,2054,2054,2054,2054,2054,2054,2054,2054,2054,2054,2054,
2054,2054,2054,2054,2054,2054,2054,2054,2054,2054,2054,2054,2054,2054,2054,2054,2054,2054,2054,2054,2054,2054,2054,2054,2054,2054,2054,2054,2054,0,
2054,2054,2054,2054,2054,2054,2054,2054,2054,2054,2054,2054,2054,2054,2054,2054,2054,2054,2054,2054,2054,2054,2054,2054,2054,2054,2054,2054,2054,2054,
2054,2054,2054,2054,2054,2054,2054,2054,2054,2054,2054,2054,2054,2054,2054,2054,2054,2054,2054,2054,2054,2054,2054,2054,2054,2054,2054,2054,2054,2054,
2054,2054,2054,2054,2054,2054,2054,2054,2054,2054,2054,2054,2054,2054,2054,2054,2054,2054,2054,2054,2054,2054,2054,2054,2054,2054,2054,2054,0,0,
2054,2054,2054,2054,2054,2054,2054,2054,2054,2054,2054,2054,2054,2054,2054,2054,2054,2054,2054,2054,2054,2054,2054,2054,2054,2054,2054,2054,2054,2054,
2054,2054,2054,2054,2054,2054,2054,2054,2054,2054,2054,2054,2054,2054,2054,2054,2054,2054,2054,2054,2054,2054,2165,2054,2054,2240,2054,2054,2054,2054,
2054,2054,2054,2054,2054,2054,2054,2054,2054,2054,2054,2054,2054,2054,2054,2054,2054,2054,2054,2054,2054,2054,2054,2054,2054,2054,2054,2054,2054,2054,
2054,2054,2054,2054,2054,2054,2054,2054,2054,2054,2054,2054,2054,2054,2054,2054,2054,2054,2054,2054,2054,2054,2054,2054,2054,2054,2054,2054,2054,2054,
2054,2054,2054,2054,2054,2054,2054,2054,2054,2054,2054,2054,2054,2054,2054,2054,2054,2054,2054,2054,2054,2054,2054,2054,2054,2054,2054,2054,2054,2054,
0,0,0,2054,2054,2054,2054,2054,2054,2054,2054,2054,2054,2054,2054,2054,2054,2054,2054,2054,2054,2054,2054,2054,2054,2054,2054,2054,2054,0,
2054,2054,2054,2054,2054,2054,2054,2054,2054,2054,2054,2054,2054,2054,2054,2054,2054,2054,2054,2165,2054,2054,2054,2054,2054,2054,2054,2054,2054,0,
2054,2054,2054,2054,2054,2054,2054,2054,2054,2054,2054,2054,2054,2054,2054,2054,2054,2054,2054,2054,2054,2054,2054,2054,2054,2054,2054,2054,2054,2054,
0,0,2054,2054,2054,2054,2054,2054,2054,2054,2054,2054,2054,2054,2054,2054,2054,2054,2054,2054,2054,2054,2054,2054,2054,2054,2054,2054,2054,2054,
0,0,0,0,0,0,0,0,0,0,0,0,0,0,0,0,0,0,0,0,2054,2054,2054,2054,2054,2054,0,0,0,0
</data>
 </layer>
 <objectgroup id="6" name="Collision">
  <object id="34" x="1.33333" y="128.667" width="77.3333" height="12.6667"/>
  <object id="35" x="64.6667" y="15.3333" width="13.3333" height="125.333"/>
  <object id="36" x="66.6667" y="14.6667" width="381.333" height="16.6667"/>
  <object id="37" x="432.667" y="16.6667" width="14" height="222"/>
  <object id="39" x="400" y="160" width="36" height="16.6667"/>
  <object id="40" x="320.667" y="225.333" width="48" height="13.3333"/>
  <object id="41" x="322" y="224.667" width="14" height="67.3333"/>
  <object id="42" x="64.6667" y="272.667" width="271.333" height="12.6667"/>
  <object id="43" x="0" y="176" width="78.6667" height="14"/>
  <object id="44" x="64" y="177.333" width="15.3333" height="98"/>
  <object id="45" x="77.3333" y="224.667" width="113.333" height="50.6667"/>
  <object id="46" x="115.333" y="29.3333" width="74" height="17.3333"/>
  <object id="47" x="130" y="46" width="60.6667" height="17.3333"/>
  <object id="48" x="209.333" y="28.6667" width="78" height="17.3333"/>
  <object id="50" x="225.333" y="45.3333" width="60.6667" height="18"/>
  <object id="51" x="304.667" y="31.3333" width="94" height="16"/>
  <object id="52" x="320.667" y="46" width="62.6667" height="16.6667"/>
  <object id="54" x="313.333" y="265.333"/>
  <object id="55" x="353.333" y="176.667" width="18.6667" height="14.6667"/>
  <object id="56" x="374" y="176.667" width="66.6667" height="16"/>
  <object id="57" x="386.667" y="192.667" width="46.6667" height="43.3333"/>
  <object id="60" x="367.333" y="224.667" width="68" height="13.3333"/>
  <object id="62" x="374.667" y="187.333" width="12" height="40"/>
 </objectgroup>
 <objectgroup id="8" name="The Stranger">
  <object id="53" name="The Stranger" gid="2802" x="255.333" y="168" width="16" height="16">
   <properties>
    <property name="name" value="The Stranger"/>
    <property name="type" value="NPC"/>
   </properties>
  </object>
 </objectgroup>
</map>
