<?xml version="1.0" encoding="UTF-8"?>
<map version="1.10" tiledversion="1.11.2" orientation="orthogonal" renderorder="right-down" width="30" height="20" tilewidth="16" tileheight="16" infinite="0" nextlayerid="12" nextobjectid="31">
 <tileset firstgid="1" source="WallA.tsx"/>
 <tileset firstgid="1021" source="FloorA.tsx"/>
 <tileset firstgid="1840" source="FleshA.tsx"/>
 <tileset firstgid="1912" source="Pest0A.tsx"/>
 <tileset firstgid="2000" source="Decor1A.tsx"/>
 <tileset firstgid="2176" source="Decor0A.tsx"/>
 <tileset firstgid="2352" source="Tree0A.tsx"/>
 <tileset firstgid="2784" source="Humanoid0A.tsx"/>
 <tileset firstgid="3000" source="Cat1A.tsx"/>
 <tileset firstgid="3040" source="Chest0A.tsx"/>
 <tileset firstgid="3064" source="Chest1A.tsx"/>
 <tileset firstgid="3088" source="PlayerAnimated.tsx"/>
 <tileset firstgid="3328" source="DecorAnimated.tsx"/>
 <tileset firstgid="3680" source="HumanoidAnimated.tsx"/>
 <tileset firstgid="4112" source="CatAnimated.tsx"/>
 <layer id="1" name="Layer" width="30" height="20" locked="1">
  <data encoding="csv">
10,10,10,10,10,10,10,10,10,10,10,10,10,10,10,10,10,10,10,10,10,10,10,10,10,10,10,10,10,10,
10,10,10,10,10,10,10,10,10,10,10,10,10,10,10,10,10,10,10,10,10,10,10,10,10,10,10,10,10,10,
10,10,10,10,10,10,10,10,10,10,10,10,10,10,10,10,10,10,10,10,10,10,10,10,10,10,10,10,10,10,
10,10,10,181,182,182,182,182,182,182,182,182,182,182,182,182,182,182,182,182,182,182,182,182,182,182,183,10,10,10,
10,10,10,201,1217,1218,1218,1218,1218,1218,1219,1227,1211,1211,1211,1211,1211,1211,1211,1211,1211,1211,1211,1211,1211,1212,201,10,10,10,
10,10,10,201,1259,1260,1260,1260,1260,1260,1261,1248,1232,1232,1232,1232,1232,1232,1232,1232,1232,1232,1232,1232,1232,1233,201,10,10,10,
10,10,10,201,1249,1250,1250,1250,1250,1250,1251,1269,1232,1232,1232,1232,1232,1232,1232,1232,1232,1232,1232,1232,1232,1233,201,10,10,10,
10,10,10,201,1217,1218,1219,1232,1232,1232,1232,1232,1232,1232,1232,1232,1232,1232,1232,1232,1232,1232,1232,1232,1232,1233,201,10,10,10,
10,10,10,201,1238,1239,1240,1232,1232,1232,1232,1232,1232,1232,1232,1232,1232,1232,1232,1232,1232,1232,1232,1232,1232,1233,221,182,182,182,
10,10,10,201,1238,1239,1240,1232,1232,1232,1232,1232,1232,1232,1232,1232,1232,1232,1232,1232,1232,1232,1232,1232,1232,1233,1235,1236,1236,1236,
10,10,10,201,1238,1239,1240,1232,1232,1232,1232,1232,1232,1232,1232,1232,1232,1232,1232,1232,1232,1232,1232,1232,1232,1233,1235,1236,1236,1236,
10,10,10,201,1238,1239,1240,1232,1232,1232,1232,1232,1232,1232,1232,1232,1232,1232,1232,1232,1232,1232,1232,1232,1232,1233,181,182,182,182,
10,10,10,201,1238,1239,1240,1232,1232,1232,1232,1232,1232,1232,1232,1232,1232,1232,1232,1232,1232,1232,1232,1232,1232,1233,201,10,10,10,
10,10,10,201,1238,1239,1240,1232,1232,1232,1232,1232,1232,1232,1232,1232,1232,1232,1232,1232,1232,1232,1232,1232,1232,1233,201,10,10,10,
10,10,10,201,1238,1239,1240,1232,1232,1232,1232,1232,1232,1232,1232,1232,1232,1232,1232,1232,1232,1232,1232,1232,1232,1233,201,10,10,10,
10,10,10,201,1259,1260,1261,1253,1253,1253,1253,1253,1253,1253,1253,1253,1253,1253,1253,1253,1253,1253,1253,1253,1253,1254,201,10,10,10,
10,10,10,221,182,182,182,182,182,182,182,182,182,182,182,182,182,182,182,182,182,182,182,182,182,182,223,10,10,10,
10,10,10,10,10,10,10,10,10,10,10,10,10,10,10,10,10,10,10,10,10,10,10,10,10,10,10,10,10,10,
10,10,10,10,10,10,10,10,10,10,10,10,10,10,10,10,10,10,10,10,10,10,10,10,10,10,10,10,10,10,
10,10,10,10,10,10,10,10,10,10,10,10,10,10,10,10,10,10,10,10,10,10,10,10,10,10,10,10,10,10
</data>
 </layer>
 <layer id="4" name="2" width="30" height="20">
  <data encoding="csv">
0,0,0,0,0,0,0,0,0,0,0,0,0,0,0,0,0,0,0,0,0,0,0,0,0,0,0,0,0,0,
0,0,0,0,0,0,0,0,0,0,0,0,0,0,0,0,0,0,0,0,0,0,0,0,0,0,0,0,0,0,
0,0,0,0,0,0,0,0,0,0,0,0,0,0,0,0,0,0,0,0,0,0,0,0,0,0,0,0,0,0,
0,0,0,0,0,0,0,0,0,0,0,0,0,0,0,0,3457,0,0,0,0,0,0,0,0,0,0,0,0,0,
0,0,0,0,0,0,0,0,0,0,0,0,0,0,0,0,0,0,0,0,0,0,0,0,0,0,0,0,0,0,
0,0,0,0,0,0,0,0,0,0,0,0,0,0,0,0,0,0,0,0,0,0,0,0,0,0,0,0,0,0,
0,0,0,0,0,0,0,0,0,0,0,1953,0,0,0,0,0,0,0,0,0,0,0,0,0,0,0,0,0,0,
0,0,0,0,2281,0,2272,2147487769,0,0,0,0,0,0,0,0,0,0,0,0,0,0,0,0,0,0,0,0,0,0,
0,0,0,0,0,0,1953,0,0,0,0,0,0,0,0,0,0,0,0,0,0,0,0,0,0,0,0,0,3457,0,
0,0,0,0,0,0,0,0,0,0,0,0,0,0,0,0,0,0,0,0,0,0,0,0,0,0,0,0,0,0,
0,0,0,0,2272,0,0,0,0,0,0,0,0,0,0,0,0,0,0,0,0,0,0,0,0,0,0,0,0,0,
0,0,0,0,0,0,0,0,0,0,0,0,0,0,0,0,0,0,0,0,0,0,0,0,0,0,0,0,0,0,
0,0,0,0,0,0,0,0,0,0,0,0,0,0,0,0,0,0,0,0,0,0,0,0,0,0,0,0,0,0,
0,0,0,0,0,2281,2272,0,0,0,0,0,0,0,0,0,0,0,0,0,0,0,0,0,0,0,0,0,0,0,
0,0,0,0,2281,0,0,0,0,0,0,0,0,0,0,0,0,0,0,0,0,0,3051,3051,3049,3073,0,0,0,0,
0,0,0,0,0,0,2273,0,0,0,0,0,0,0,0,0,0,0,0,0,0,0,3073,2280,2281,3049,0,0,0,0,
0,0,0,0,0,0,0,0,0,0,0,0,0,0,0,0,0,0,0,0,0,0,0,0,0,0,0,0,0,0,
0,0,0,0,0,0,0,0,0,0,0,0,0,0,0,0,0,0,0,0,0,0,0,0,0,0,0,0,0,0,
0,0,0,0,0,0,0,0,0,0,0,0,0,0,0,0,0,0,0,0,0,0,0,0,0,0,0,0,0,0,
0,0,0,0,0,0,0,0,0,0,0,0,0,0,0,0,0,0,0,0,0,0,0,0,0,0,0,0,0,0
</data>
 </layer>
 <layer id="2" name="Decor" width="30" height="20" locked="1">
  <data encoding="csv">
0,0,0,0,0,0,0,0,0,0,0,0,0,0,0,0,0,0,0,0,0,0,0,0,0,0,0,0,0,0,
0,0,0,0,0,0,0,0,0,0,0,0,0,0,0,0,0,0,0,0,0,0,0,0,0,0,0,0,0,0,
0,0,0,0,0,0,0,0,0,0,0,0,0,0,0,0,0,0,0,0,0,0,0,0,0,0,0,0,0,0,
0,0,0,0,0,0,0,0,0,0,0,0,0,0,0,0,0,0,0,0,0,0,0,0,0,0,0,0,0,0,
0,0,0,0,1846,0,1912,0,0,0,1904,3221227346,0,0,0,0,0,0,0,0,0,0,0,0,0,0,0,0,0,0,
0,0,0,0,0,0,0,0,0,1912,0,3221227346,0,0,0,0,0,0,0,0,0,0,0,0,0,0,0,0,0,0,
0,0,0,0,3221227346,3221227346,3221227346,3221227346,3221227346,3221227346,3221227346,1874,0,0,0,0,0,0,0,0,0,0,0,0,0,0,0,0,0,0,
0,0,0,0,2388,2391,2397,0,0,0,0,0,0,0,0,0,0,0,0,0,2232,2233,2234,0,0,0,0,0,0,0,
0,0,0,0,2400,2401,2402,0,0,0,0,0,0,0,0,0,0,0,0,0,0,0,0,0,0,0,0,0,0,0,
0,0,0,0,2412,2413,2414,0,0,0,0,0,0,0,0,0,0,0,0,0,0,0,0,0,0,0,0,0,0,0,
0,0,0,0,2394,2389,2390,0,0,0,0,0,0,0,0,0,0,0,0,0,0,0,0,0,0,0,0,0,0,0,
0,0,0,0,2406,2407,2391,0,0,0,0,0,0,0,0,0,0,0,0,0,0,0,0,0,0,0,0,0,0,0,
0,0,0,0,2418,2413,2414,0,0,0,0,0,0,0,0,0,0,0,0,0,0,0,0,0,0,0,0,0,0,0,
0,0,0,0,2394,2391,2396,0,0,0,0,0,0,0,0,0,0,0,0,0,0,0,0,0,0,0,0,0,0,0,
0,0,0,0,2406,2391,2391,0,0,0,0,0,0,0,0,0,0,0,0,0,0,0,0,2332,0,2330,0,0,0,0,
0,0,0,0,2418,2419,2420,0,0,0,0,0,0,0,0,0,0,0,0,0,0,0,2329,0,0,2332,0,0,0,0,
0,0,0,0,0,0,0,0,0,0,0,0,0,0,0,0,0,0,0,0,0,0,0,0,0,0,0,0,0,0,
0,0,0,0,0,0,0,0,0,0,0,0,0,0,0,0,0,0,0,0,0,0,0,0,0,0,0,0,0,0,
0,0,0,0,0,0,0,0,0,0,0,0,0,0,0,0,0,0,0,0,0,0,0,0,0,0,0,0,0,0,
0,0,0,0,0,0,0,0,0,0,0,0,0,0,0,0,0,0,0,0,0,0,0,0,0,0,0,0,0,0
</data>
 </layer>
 <layer id="3" name="Decor2" width="30" height="20" locked="1">
  <data encoding="csv">
0,0,0,0,0,0,0,0,0,0,0,0,0,0,0,0,0,0,0,0,0,0,0,0,0,0,0,0,0,0,
0,0,0,0,0,0,0,0,0,0,0,0,0,0,0,0,0,0,0,0,0,0,0,0,0,0,0,0,0,0,
0,0,0,0,0,0,0,0,0,0,0,0,0,0,0,0,0,0,0,0,0,0,0,0,0,0,0,0,0,0,
0,0,0,0,0,0,0,0,0,0,0,0,0,0,0,0,0,0,0,0,0,0,0,0,0,0,0,0,0,0,
0,0,0,0,2153,0,0,0,0,0,2154,2684356434,0,0,0,0,0,0,0,0,0,0,0,0,0,0,0,0,0,0,
0,0,0,0,0,0,0,0,0,0,0,2684356434,0,0,0,0,0,0,0,0,0,0,0,0,0,0,0,0,0,0,
0,0,0,0,2684356434,2684356434,2684356434,2684356434,2684356434,2684356434,2684356434,2684356434,0,0,0,0,0,0,0,0,0,0,0,0,0,0,0,0,0,0,
0,0,0,0,0,0,0,0,0,0,0,0,0,0,0,0,0,0,0,0,0,0,0,0,0,0,0,0,0,0,
0,0,0,0,0,0,0,0,0,0,0,0,0,0,0,0,0,0,0,0,0,0,0,0,0,0,0,0,0,0,
0,0,0,0,0,0,0,0,0,0,0,0,0,0,0,0,0,0,0,0,0,0,0,0,0,0,0,0,0,0,
0,0,0,0,0,0,0,0,0,0,0,0,0,0,0,0,0,0,0,0,0,0,0,0,0,0,0,0,0,0,
0,0,0,0,0,0,0,0,0,0,0,0,0,0,0,0,0,0,0,0,0,0,0,0,0,0,0,0,0,0,
0,0,0,0,0,0,0,0,0,0,0,0,0,0,0,0,0,0,0,0,0,0,0,0,0,0,0,0,0,0,
0,0,0,0,0,0,0,0,0,0,0,0,0,0,0,0,0,0,0,0,0,0,0,0,0,0,0,0,0,0,
0,0,0,0,0,0,0,0,0,0,0,0,0,0,0,0,0,0,0,0,0,0,0,0,0,0,0,0,0,0,
0,0,0,0,0,0,0,0,0,0,0,0,0,0,0,0,0,0,0,0,0,0,0,0,0,0,0,0,0,0,
0,0,0,0,0,0,0,0,0,0,0,0,0,0,0,0,0,0,0,0,0,0,0,0,0,0,0,0,0,0,
0,0,0,0,0,0,0,0,0,0,0,0,0,0,0,0,0,0,0,0,0,0,0,0,0,0,0,0,0,0,
0,0,0,0,0,0,0,0,0,0,0,0,0,0,0,0,0,0,0,0,0,0,0,0,0,0,0,0,0,0,
0,0,0,0,0,0,0,0,0,0,0,0,0,0,0,0,0,0,0,0,0,0,0,0,0,0,0,0,0,0
</data>
 </layer>
 <objectgroup id="6" name="Collision">
  <object id="7" x="182" y="59.3333" height="1.33333"/>
  <object id="8" x="182" y="56"/>
  <object id="9" x="182" y="75.3333"/>
  <object id="10" x="182" y="95.3333"/>
  <object id="11" x="181.333" y="100.667"/>
  <object id="12" x="66" y="92" width="121.333" height="18.6667"/>
  <object id="14" x="96" y="96.6667" width="14.6667" height="159.333"/>
  <object id="16" x="191.333" y="49.3333" width="238.667" height="16"/>
  <object id="17" x="415.333" y="59.3333" width="17.3333" height="82"/>
  <object id="18" x="433" y="128" width="46.3334" height="14"/>
  <object id="19" x="433" y="174.667" width="47.6667" height="16.6667"/>
  <object id="20" x="418" y="175.333" width="14" height="96"/>
  <object id="21" x="132" y="256.667" width="288.667" height="14.6667"/>
  <object id="22" x="96" y="256" width="39.3333" height="14.6667"/>
  <object id="23" x="320.667" y="112" width="46" height="15.3333"/>
  <object id="24" x="119.333" y="116.667"/>
  <object id="25" x="352" y="224" width="66.6667" height="34"/>
 </objectgroup>
 <objectgroup id="11" name="Entities">
  <object id="30" name="The Laughing Girl" gid="3738" x="260.5" y="175" width="16" height="16">
   <properties>
    <property name="name" value="The Laughing Girl"/>
    <property name="type" value="NPC"/>
   </properties>
  </object>
 </objectgroup>
 <objectgroup id="10" name="Spawns">
  <object id="28" x="269.333" y="171.667">
   <properties>
    <property name="name" value="The Laughing Girl"/>
    <property name="type" value="NPC"/>
   </properties>
   <point/>
  </object>
  <object id="29" x="433.333" y="170">
   <properties>
    <property name="type" value="Player"/>
   </properties>
   <point/>
  </object>
 </objectgroup>
</map>
