<?xml version="1.0" encoding="UTF-8"?>
<map version="1.10" tiledversion="1.11.2" orientation="orthogonal" renderorder="right-down" width="30" height="20" tilewidth="16" tileheight="16" infinite="0" nextlayerid="8" nextobjectid="25">
 <tileset firstgid="1" source="Decor0A.tsx"/>
 <tileset firstgid="177" source="Decor1A.tsx"/>
 <tileset firstgid="353" source="Tree1A.tsx"/>
 <tileset firstgid="785" source="Tree0A.tsx"/>
 <tileset firstgid="1217" source="Chest0A.tsx"/>
 <tileset firstgid="1241" source="Chest1A.tsx"/>
 <tileset firstgid="1265" source="FleshA.tsx"/>
 <tileset firstgid="1337" source="RockA.tsx"/>
 <tileset firstgid="1353" source="ScrollA.tsx"/>
 <tileset firstgid="1401" source="MageA.tsx"/>
 <tileset firstgid="1417" source="RogueA.tsx"/>
 <tileset firstgid="1433" source="WallA.tsx"/>
 <tileset firstgid="2453" source="FloorA.tsx"/>
 <tileset firstgid="3272" source="Cat0A.tsx"/>
 <tileset firstgid="3312" source="Cat1A.tsx"/>
 <tileset firstgid="3352" source="Humanoid1A.tsx"/>
 <tileset firstgid="3568" source="Humanoid0A.tsx"/>
 <tileset firstgid="3784" source="Pest0A.tsx"/>
 <tileset firstgid="3872" source="Pest1A.tsx"/>
 <tileset firstgid="3960" source="DecorAnimated.tsx"/>
 <tileset firstgid="4312" source="HumanoidAnimated.tsx"/>
 <layer id="1" name="Wall,Path" width="30" height="20" locked="1">
  <data encoding="csv">
2463,2463,2463,2463,2463,2463,2463,2463,2463,2463,2463,2463,2463,1633,2666,2666,1633,2463,2463,2463,2463,2463,2463,2463,2463,2463,2463,2463,2463,2463,
2463,2463,2463,2463,2463,2463,2463,2463,2463,2463,2463,2463,2463,1633,2666,2666,1633,2463,2463,2463,2463,2463,2463,2463,2463,2463,2463,2463,2463,2463,
2463,2463,2463,2463,2463,2463,2463,2463,2463,2463,2463,2463,2463,1633,2666,2666,1633,2463,2463,2463,2463,2463,2463,2463,2463,2463,2463,2463,2463,2463,
2463,2463,2463,1613,1614,1614,1614,1614,1614,1614,1614,1614,1614,1655,2687,2687,1653,1614,1614,1614,1614,1614,1614,1614,1614,1614,1615,2463,2463,2463,
2463,2463,2463,1633,2642,2643,2643,2643,2643,2643,2643,2643,2643,2643,2664,2664,2643,2643,2643,2643,2643,2643,2643,2643,2643,2644,1633,2463,2463,2463,
2463,2463,2463,1633,2663,2664,2664,2664,2664,2664,2664,2664,2664,2664,2664,2664,2664,2664,2664,2664,2664,2664,2664,2664,2664,2665,1633,2463,2463,2463,
2463,2463,2463,1633,2663,2664,2664,2664,2664,2664,2664,2664,2664,2664,2664,2664,2664,2664,2664,2664,2664,2664,2664,2664,2664,2665,1633,2463,2463,2463,
2463,2463,2463,1633,2663,2664,2664,2664,2664,2664,2664,2664,2664,2664,2664,2664,2664,2664,2664,2664,2664,2664,2664,2664,2664,2665,1633,1442,1442,1442,
1614,1614,1614,1655,2663,2664,2664,2664,2664,2664,2664,2664,2664,2664,2664,2664,2664,2664,2664,2664,2664,2664,2664,2664,2664,2664,1653,1614,1614,1614,
2668,2668,2668,2669,2664,2664,2664,2664,2664,2664,2664,2664,2664,2664,2664,2664,2664,2664,2664,2664,2664,2664,2664,2664,2664,2664,2667,2668,2668,2668,
2668,2668,2668,2669,2664,2664,2664,2664,2664,2664,2664,2664,2664,2664,2664,2664,2664,2664,2664,2664,2664,2664,2664,2664,2664,2664,2667,2668,2668,2668,
1614,1614,1614,1615,2663,2664,2664,2664,2664,2664,2664,2664,2664,2664,2664,2664,2664,2664,2664,2664,2664,2664,2664,2664,2664,2665,1613,1614,1614,1614,
2463,2463,2463,1633,2663,2664,2664,2664,2664,2664,2664,2664,2664,2664,2664,2664,2664,2664,2664,2664,2664,2664,2664,2664,2664,2665,1633,2463,2463,2463,
2463,2463,2463,1633,2663,2664,2664,2664,2664,2664,2664,2664,2664,2664,2664,2664,2664,2664,2664,2664,2664,2664,2664,2664,2664,2665,1633,2463,2463,2463,
2463,2463,2463,1633,2663,2664,2664,2664,2664,2664,2664,2664,2664,2664,2664,2664,2664,2664,2664,2664,2664,2664,2664,2664,2664,2665,1633,2463,2463,2463,
2463,2463,2463,1633,2684,2685,2685,2685,2685,2685,2685,2685,2685,2685,2685,2685,2685,2685,2685,2685,2685,2685,2685,2685,2685,2686,1633,2463,2463,2463,
2463,2463,2463,1653,1614,1614,1614,1614,1614,1614,1614,1614,1614,1614,1614,1614,1614,1614,1614,1614,1614,1614,1614,1614,1614,1614,1655,2463,2463,2463,
2463,2463,2463,2463,2463,2463,2463,2463,2463,2463,2463,2463,2463,2463,2463,2463,2463,2463,2463,2463,2463,2463,2463,2463,2463,2463,2463,2463,2463,2463,
2463,2463,2463,2463,2463,2463,2463,2463,2463,2463,2463,2463,2463,2463,2463,2463,2463,2463,2463,2463,2463,2463,2463,2463,2463,2463,2463,2463,2463,2463,
2463,2463,2463,2463,2463,2463,2463,2463,2463,2463,2463,2463,2463,2463,2463,2463,2463,2463,2463,2463,2463,2463,2463,2463,2463,2463,2463,2463,2463,2463
</data>
 </layer>
 <layer id="3" name="Decor" width="30" height="20" locked="1">
  <data encoding="csv">
0,0,0,0,0,0,0,0,0,0,0,0,0,0,0,0,0,0,0,0,0,0,0,0,0,0,0,0,0,1515,
0,0,0,0,0,0,0,0,0,0,0,0,0,0,0,0,0,0,0,0,0,0,0,0,0,0,0,0,0,1515,
0,0,0,0,0,0,0,0,0,0,0,0,0,0,0,0,0,0,0,0,0,0,0,0,0,0,0,0,0,1515,
0,0,0,0,0,0,0,0,0,0,0,0,1360,0,0,0,0,0,0,0,38,38,34,39,209,0,0,0,0,1515,
0,0,0,0,273,1218,1218,0,0,0,0,0,0,0,0,0,0,0,0,0,0,0,0,0,0,95,0,0,0,1515,
0,0,0,0,0,0,0,0,0,0,0,0,0,0,0,0,0,0,0,0,0,0,0,0,0,4142,0,0,0,1515,
0,0,0,0,0,0,0,0,0,0,0,0,0,0,0,0,0,0,0,0,0,0,0,0,0,4142,0,0,0,1515,
0,0,0,0,0,0,0,0,0,0,0,0,116,117,117,117,117,118,0,0,0,0,0,0,0,0,0,0,1442,1442,
0,0,0,0,0,0,0,0,0,0,0,0,124,125,125,125,125,126,0,0,0,0,0,0,0,0,1536,1536,4089,1536,
0,0,0,0,0,0,0,0,0,0,0,0,124,125,125,125,125,126,0,0,0,0,0,0,0,0,0,0,0,0,
0,0,0,0,0,0,0,0,0,0,0,0,124,125,125,125,125,126,64,0,0,0,0,0,0,0,0,0,0,0,
0,0,0,0,0,0,0,0,0,0,0,0,132,133,133,133,133,134,0,0,0,0,0,0,0,1218,0,0,0,1515,
0,0,0,0,0,0,0,0,0,0,0,0,0,0,0,0,0,0,0,0,0,0,0,0,0,0,0,0,0,1515,
0,0,0,0,0,0,0,0,0,0,0,0,0,0,0,0,0,0,0,0,0,0,0,0,0,0,0,0,0,1515,
0,0,0,0,1226,1226,1226,1252,1250,1250,0,0,0,0,0,0,0,0,0,0,0,0,0,0,0,0,0,0,0,1515,
0,0,0,0,1226,1252,1226,1250,1250,1226,0,0,0,0,0,0,0,0,0,0,0,0,0,0,0,0,0,0,0,1515,
0,0,0,0,0,0,0,0,0,0,0,0,0,0,0,0,0,0,0,0,0,0,0,0,0,0,0,0,0,1515,
0,0,0,0,0,0,0,0,0,0,0,0,0,0,0,0,0,0,0,0,0,0,0,0,0,0,0,0,0,1515,
0,0,0,0,0,0,0,0,0,0,0,0,0,0,0,0,0,0,0,0,0,0,0,0,0,0,0,0,0,1515,
0,0,0,0,0,0,0,0,0,0,0,0,0,0,0,0,0,0,0,0,0,0,0,0,0,0,0,0,0,1515
</data>
 </layer>
 <layer id="2" name="TimpaDecor" width="30" height="20" locked="1">
  <data encoding="csv">
0,0,0,0,0,0,0,0,0,0,0,0,0,0,0,0,0,0,0,0,0,0,0,0,0,0,0,0,0,0,
0,0,0,0,0,0,0,0,0,0,0,0,0,0,0,20,0,0,0,0,0,0,0,0,0,0,0,0,0,0,
0,0,0,0,0,0,0,0,0,0,0,0,0,0,0,3221225491,0,0,0,0,0,0,0,0,0,0,0,0,0,0,
0,0,0,0,0,0,0,0,0,0,4089,0,0,0,0,0,0,0,0,70,0,17,0,0,331,0,0,0,0,0,
0,0,0,0,2684354579,1610612756,0,2684354579,0,0,0,0,17,0,0,0,0,0,2684354579,0,1610612756,0,0,0,0,3817,0,0,0,0,
0,0,0,0,0,0,0,0,0,0,0,0,0,0,0,0,0,0,0,0,0,0,0,0,0,20,0,0,0,0,
0,0,0,0,0,0,0,57,58,59,0,0,0,0,0,0,0,0,0,0,0,0,0,0,0,0,0,0,0,0,
0,0,0,0,0,0,0,0,0,0,0,0,0,0,0,0,0,0,0,0,0,0,0,0,0,3221225491,0,0,1442,1442,
0,4089,17,0,0,0,0,0,0,0,0,0,0,1292,1292,1292,1292,0,0,0,0,0,0,0,0,0,1536,1536,1536,1536,
0,0,0,0,0,0,0,0,0,0,0,0,1292,1292,1292,1292,1292,0,0,0,0,0,0,0,0,0,0,0,0,2684354579,
18,1610612755,1610612755,0,0,0,0,0,0,0,0,0,1292,1292,1292,1292,1292,0,0,1292,0,0,0,0,0,0,0,1610612755,0,0,
0,0,0,0,0,0,0,0,0,0,0,0,0,1292,1292,1292,1292,1292,1292,0,0,0,0,0,0,333,0,0,0,0,
0,0,0,0,0,0,0,0,0,0,0,0,0,0,0,0,0,0,0,0,0,0,0,0,0,0,0,0,0,0,
0,0,0,0,0,0,0,0,0,0,0,0,0,0,0,0,0,0,0,0,0,0,0,0,0,0,0,0,0,0,
0,0,0,0,0,0,0,0,0,3817,0,0,0,0,0,0,0,0,0,0,0,0,0,0,0,0,0,0,0,0,
0,0,0,0,0,2684354580,0,0,18,0,0,0,0,0,0,0,0,0,0,0,0,1610612755,0,0,18,2684354580,0,0,0,0,
0,0,0,0,0,0,0,0,0,0,0,0,0,0,0,0,0,0,0,0,0,0,0,0,0,0,0,0,0,0,
0,0,0,0,0,0,0,0,0,0,0,0,0,0,0,0,0,0,0,0,0,0,0,0,0,0,0,0,0,0,
0,0,0,0,0,0,0,0,0,0,0,0,0,0,0,0,0,0,0,0,0,0,0,0,0,0,0,0,0,0,
0,0,0,0,0,0,0,0,0,0,0,0,0,0,0,0,0,0,0,0,0,0,0,0,0,0,0,0,0,0
</data>
 </layer>
 <layer id="4" name="TimpaDecor2" width="30" height="20" locked="1">
  <data encoding="csv">
0,0,0,0,0,0,0,0,0,0,0,0,0,0,0,0,0,0,0,0,0,0,0,0,0,0,0,0,0,0,
0,0,0,0,0,0,0,0,0,0,0,0,0,0,0,0,0,0,0,0,0,0,0,0,0,0,0,0,0,0,
0,0,0,0,0,0,0,0,0,0,0,0,0,0,0,0,0,0,0,0,0,0,0,0,0,0,0,0,0,0,
0,0,0,0,0,0,0,0,0,0,0,0,0,0,0,0,0,0,0,0,0,0,0,0,0,0,0,0,0,0,
0,0,0,0,0,0,0,0,0,0,0,0,0,0,0,0,0,0,0,0,0,0,0,0,0,0,0,0,0,0,
0,0,0,0,0,0,0,0,0,0,0,0,0,0,0,0,0,0,0,0,0,0,0,0,0,0,0,0,0,0,
0,0,0,0,0,0,0,0,0,0,0,0,0,0,0,0,0,0,0,0,0,0,0,0,0,0,0,0,0,0,
0,0,0,0,0,0,0,0,0,0,0,0,0,0,0,0,0,0,0,0,0,0,0,0,0,0,0,0,0,0,
0,0,0,0,0,0,0,0,0,0,0,0,0,0,0,0,0,0,0,0,0,0,0,0,0,0,1536,1536,1536,1536,
0,0,0,0,0,0,0,0,0,0,0,0,0,0,0,0,0,0,0,0,0,0,0,0,0,0,0,0,0,0,
0,0,0,0,0,0,0,0,0,0,0,0,0,0,0,0,0,0,0,0,0,0,0,0,0,0,0,0,0,0,
0,0,0,0,0,0,0,0,0,0,0,0,0,0,0,0,0,0,0,0,0,0,0,0,0,0,0,0,0,0,
0,0,0,0,0,0,0,0,0,0,0,0,0,0,0,0,0,0,0,0,0,0,0,0,0,0,0,0,0,0,
0,0,0,0,0,0,0,0,0,0,0,0,0,0,0,0,0,0,0,0,0,0,0,0,0,0,0,0,0,0,
0,0,0,0,1610612891,156,156,0,0,155,0,0,0,0,0,0,0,0,0,0,0,0,0,0,0,0,0,0,0,0,
0,0,0,0,3221225627,0,0,156,0,2684354715,0,0,0,0,0,0,0,0,0,0,0,0,0,0,0,0,0,0,0,0,
0,0,0,0,0,0,0,0,0,0,0,0,0,0,0,0,0,0,0,0,0,0,0,0,0,0,0,0,0,0,
0,0,0,0,0,0,0,0,0,0,0,0,0,0,0,0,0,0,0,0,0,0,0,0,0,0,0,0,0,0,
0,0,0,0,0,0,0,0,0,0,0,0,0,0,0,0,0,0,0,0,0,0,0,0,0,0,0,0,0,0,
0,0,0,0,0,0,0,0,0,0,0,0,0,0,0,0,0,0,0,0,0,0,0,0,0,0,0,0,0,0
</data>
 </layer>
 <objectgroup id="5" name="The Whisper">
  <object id="5" name="The Whisper" gid="4689" x="302" y="178" width="16" height="16">
   <properties>
    <property name="name" value="The Whisper"/>
    <property name="type" value="NPC"/>
   </properties>
  </object>
 </objectgroup>
 <objectgroup id="6" name="The Keeper">
  <object id="7" name="The Keeper" gid="2147488194" x="128" y="131" width="16" height="16">
   <properties>
    <property name="name" value="The Keeper"/>
    <property name="type" value="NPC"/>
   </properties>
  </object>
 </objectgroup>
 <objectgroup id="7" name="Collision">
  <object id="8" x="48.5" y="48" width="175.5" height="14"/>
  <object id="9" x="207.5" y="-2.5" width="15.5" height="52.5"/>
  <object id="10" x="257" y="-2" width="14" height="64"/>
  <object id="11" x="48.5" y="62" width="63.5" height="14.5"/>
  <object id="12" x="45.5" y="73.5" width="17" height="67"/>
  <object id="13" x="-1.5" y="129" width="63" height="12.5"/>
  <object id="14" x="-1" y="175.5" width="65" height="16"/>
  <object id="15" x="47.5" y="177.5" width="14.5" height="92"/>
  <object id="16" x="55" y="226" width="104.5" height="29"/>
  <object id="17" x="57.5" y="254.5" width="375.5" height="17"/>
  <object id="18" x="416.5" y="175" width="14" height="83"/>
  <object id="19" x="402" y="176" width="70.5" height="14.5"/>
  <object id="20" x="417" y="127" width="53" height="16"/>
  <object id="21" x="418" y="50.5" width="17.5" height="79.5"/>
  <object id="22" x="399.5" y="49" width="18" height="62"/>
  <object id="23" x="258" y="47.5" width="168" height="14"/>
  <object id="24" x="114.5" y="95.5" width="44.5" height="15"/>
 </objectgroup>
</map>
